X:346
T:Jim Ritchie's March 
C:Joe Buchanan's Scottish Tome - Page 140.0
I:140 0
R:March
Z:Carl Allison
L:1/8
M:6/8
K:D
d | "A"A>AA "E(a)"c2 d | "A"ec>a "E(a)"ecA  | "G"gf>e "D(g)"d2 g | "G"B<GB "E7"e>dB |
"A"AA>A "E(a)"c2 d | "A"e>ca "E(a)"e>cA | "G"d>ef "D(g)"g>GB | "A"A3 A2 :|
e | "A"a>ea "E(a)"c<eA | "D"f>ee "A(d)"e>dd | "G"d>cc "D(g)"B<gd | "G"B<GB "E7"e>dB |
"A"a>ea "E(a)"c>eA | "D"f>ee "A(d)"e>dB | "G"d>ef "D(g)"g>GB | "A"A3 A2 :|
B | "A"c>eA "E(a)"fe>e | "A"c>eA "E(a)"d>cc | "G"B<dG "D(g)"g>dd | "G"B<GB "E7"ed>B |
"A"c>eA "E(a)"f>ee | "A"c>ea "E(a)"e>cA | "G"d>ef "D(g)"g>GB | "A" A3 A2 :|
B | "A"A>aa "E(a)"f>ee | "A"e>dd "E(a)"dc>c | "G"d>ef "D(g)"g2 d | "G"B>GB "E7"e>dB |
"A"A>aa "E(a)"f>ee | "A"e>dd "E(a)"dc>c | "G"d>ef "D(g)"gGB  | "A"A3 AB |
"A"A>aa "E(a)"f>ee | "A"ed>d "E(a)"d>cc | "G"de>f "D(g)"g2 d | "G"B>GB "G7"e>dB |
"A"c>ef "E(a)"A>AA | "A"a>ee "E(a)"f>ee | "G"d>ef "D(g)"g>GB | "A"A3 A2 |]

